app-template/trcpay/img/onboarding/tour-phone.svg

<?xml version="1.0" encoding="UTF-8" standalone="no"?>
<svg
   xmlns:dc="http://purl.org/dc/elements/1.1/"
   xmlns:cc="http://creativecommons.org/ns#"
   xmlns:rdf="http://www.w3.org/1999/02/22-rdf-syntax-ns#"
   xmlns:svg="http://www.w3.org/2000/svg"
   xmlns="http://www.w3.org/2000/svg"
   xmlns:sodipodi="http://sodipodi.sourceforge.net/DTD/sodipodi-0.dtd"
   xmlns:inkscape="http://www.inkscape.org/namespaces/inkscape"
   width="247px"
   height="247px"
   viewBox="0 0 247 247"
   version="1.1"
   id="svg2"
   inkscape:version="0.91 r13725"
   sodipodi:docname="tour-phone.svg">
  <metadata
     id="metadata58">
    <rdf:RDF>
      <cc:Work
         rdf:about="">
        <dc:format>image/svg+xml</dc:format>
        <dc:type
           rdf:resource="http://purl.org/dc/dcmitype/StillImage" />
      </cc:Work>
    </rdf:RDF>
  </metadata>
  <sodipodi:namedview
     pagecolor="#ffffff"
     bordercolor="#666666"
     borderopacity="1"
     objecttolerance="10"
     gridtolerance="10"
     guidetolerance="10"
     inkscape:pageopacity="0"
     inkscape:pageshadow="2"
     inkscape:window-width="1542"
     inkscape:window-height="744"
     id="namedview56"
     showgrid="false"
     inkscape:zoom="0.95546559"
     inkscape:cx="123.5"
     inkscape:cy="123.5"
     inkscape:window-x="0"
     inkscape:window-y="0"
     inkscape:window-maximized="0"
     inkscape:current-layer="svg2" />
  <!-- Generator: Sketch 42 (36781) - http://www.bohemiancoding.com/sketch -->
  <title
     id="title4">onboarding-tour-phone</title>
  <desc
     id="desc6">Created with Sketch.</desc>
  <defs
     id="defs8">
    <linearGradient
       x1="123.50849"
       y1="-0.0072000001"
       x2="123.50849"
       y2="185.90969"
       id="linearGradient-1"
       gradientUnits="userSpaceOnUse">
      <stop
         stop-color="#192C3A"
         offset="0%"
         id="stop11" />
      <stop
         stop-color="#192C3A"
         offset="100%"
         id="stop13" />
    </linearGradient>
  </defs>
  <g
     id="g3457">
    <path
       inkscape:connector-curvature="0"
       style="opacity:0.3;fill:url(#linearGradient-1);fill-rule:nonzero;stroke:none;stroke-width:1"
       id="Shape"
       d="M 123.5,247 C 191.7,247 247,191.7 247,123.5 247,55.3 191.7,0 123.5,0 55.3,0 0,55.3 0,123.5 0,191.7 55.3,247 123.5,247 Z" />
    <g
       id="g3436">
      <g
         id="g3432">
        <path
           d="m 77,32 83.8,0 c 4.4,0 8,3.6 8,8 l 0,167.9 c 0,4.4 -3.6,8 -8,8 l -83.8,0 c -4.4,0 -8,-3.6 -8,-8 L 69,40 c 0,-4.4 3.6,-8 8,-8 z"
           id="path19"
           inkscape:connector-curvature="0"
           style="fill:#192c3a;fill-opacity:0.6548;fill-rule:nonzero;stroke:#707d89;stroke-width:2" />
        <path
           d="m 69.5,188 98.8,0"
           id="path21"
           inkscape:connector-curvature="0"
           style="fill:none;fill-rule:evenodd;stroke:#707d89;stroke-width:2;stroke-linecap:square" />
      </g>
      <g
         id="g25"
         transform="translate(102,66)"
         style="fill:#5bc2a7;fill-rule:nonzero;stroke:none;stroke-width:1">
        <path
           d="M 31.8,0 0,0 l 0,31.8 31.8,0 0,-31.8 0,0 z m -4.5,27.3 -22.7,0 0,-22.8 22.7,0 0,22.8 0,0 z"
           id="path27"
           inkscape:connector-curvature="0" />
        <polygon
           id="polygon29"
           points="100,95.5 65.9,95.5 65.9,90.9 61.4,90.9 61.4,100 100,100 " />
        <rect
           id="Rectangle-path"
           x="9.1000004"
           y="9.1000004"
           width="13.6"
           height="13.6" />
        <path
           d="m 0,100 31.8,0 0,-31.8 -31.8,0 0,31.8 0,0 z m 4.5,-27.3 22.7,0 0,22.7 -22.7,0 0,-22.7 0,0 z"
           id="path32"
           inkscape:connector-curvature="0" />
        <rect
           id="rect34"
           x="9.1000004"
           y="77.300003"
           width="13.6"
           height="13.6" />
        <path
           d="m 68.2,0 0,31.8 31.8,0 0,-31.8 -31.8,0 0,0 z m 27.3,27.3 -22.7,0 0,-22.8 22.7,0 0,22.8 0,0 z"
           id="path36"
           inkscape:connector-curvature="0" />
        <rect
           id="rect38"
           x="77.300003"
           y="9.1000004"
           width="13.6"
           height="13.6" />
        <rect
           id="rect40"
           x="90.900002"
           y="36.400002"
           width="9.1000004"
           height="9.1000004" />
        <rect
           id="rect42"
           x="0"
           y="54.5"
           width="9.1000004"
           height="9.1000004" />
        <polygon
           id="polygon44"
           points="52.3,31.8 52.3,27.3 56.8,27.3 56.8,18.2 52.3,18.2 47.7,18.2 43.2,18.2 43.2,9.1 47.7,9.1 47.7,13.6 63.6,13.6 63.6,0 59.1,0 59.1,9.1 52.3,9.1 52.3,0 50,0 40.9,0 38.6,0 38.6,22.7 47.7,22.7 47.7,27.3 38.6,27.3 38.6,31.8 47.7,31.8 47.7,36.4 29.5,36.4 29.5,40.9 52.3,40.9 " />
        <polygon
           id="polygon46"
           points="22.7,54.5 13.6,54.5 13.6,59.1 22.7,59.1 22.7,63.6 40.9,63.6 40.9,59.1 27.3,59.1 27.3,54.5 27.3,45.5 20.5,45.5 20.5,38.6 15.9,38.6 15.9,45.5 11.4,45.5 11.4,36.4 0,36.4 0,40.9 6.8,40.9 6.8,50 15.9,50 20.5,50 22.7,50 " />
        <polygon
           id="polygon48"
           points="36.4,70.5 36.4,84.1 45.5,84.1 45.5,90.9 36.4,90.9 36.4,95.5 45.5,95.5 45.5,100 56.8,100 56.8,95.5 50,95.5 50,90.9 50,79.5 40.9,79.5 40.9,70.5 " />
        <polygon
           id="polygon50"
           points="59.1,50 81.8,50 81.8,45.5 77.3,45.5 77.3,40.9 84.1,40.9 84.1,36.4 77.3,36.4 72.7,36.4 68.2,36.4 68.2,40.9 72.7,40.9 72.7,45.5 63.6,45.5 63.6,34.1 59.1,34.1 " />
        <polygon
           id="polygon52"
           points="84.1,86.4 84.1,81.8 84.1,75 75,75 75,81.8 68.2,81.8 68.2,75 63.6,75 63.6,81.8 59.1,81.8 59.1,63.6 54.5,63.6 54.5,59.1 50,59.1 50,45.5 34.1,45.5 34.1,54.5 38.6,54.5 38.6,50 45.5,50 45.5,59.1 45.5,68.2 54.5,68.2 54.5,81.8 54.5,86.4 59.1,86.4 63.6,86.4 68.2,86.4 75,86.4 75,90.9 84.1,90.9 " />
        <polygon
           id="polygon54"
           points="72.7,65.9 68.2,65.9 68.2,56.8 63.6,56.8 63.6,70.5 77.3,70.5 77.3,61.4 84.1,61.4 84.1,68.2 88.6,68.2 88.6,61.4 95.5,61.4 95.5,75 88.6,75 88.6,88.6 100,88.6 100,84.1 93.2,84.1 93.2,79.5 100,79.5 100,61.4 100,56.8 100,50 95.5,50 95.5,56.8 88.6,56.8 84.1,56.8 72.7,56.8 " />
      </g>
    </g>
  </g>
</svg>

<?xml version="1.0" encoding="UTF-8"?>
<svg width="247px" height="247px" viewBox="0 0 247 247" version="1.1" xmlns="http://www.w3.org/2000/svg" xmlns:xlink="http://www.w3.org/1999/xlink">
    <!-- Generator: Sketch 42 (36781) - http://www.bohemiancoding.com/sketch -->
    <title>onboarding-tour-phone</title>
    <desc>Created with Sketch.</desc>
    <defs>
        <linearGradient x1="50.0034413%" y1="-0.00291497976%" x2="50.0034413%" y2="75.267085%" id="linearGradient-1">
            <stop stop-color="#192C3A" offset="0%"></stop>
            <stop stop-color="#192C3A" offset="100%"></stop>
        </linearGradient>
    </defs>
    <g id="Page-1" stroke="none" stroke-width="1" fill="none" fill-rule="evenodd">
        <g id="onboarding-tour-phone">
            <path d="M123.5,247 C191.7,247 247,191.7 247,123.5 C247,55.3 191.7,0 123.5,0 C55.3,0 0,55.3 0,123.5 C0,191.7 55.3,247 123.5,247 Z" id="Shape" fill="url(#linearGradient-1)" fill-rule="nonzero" opacity="0.3"></path>
            <g id="Group" transform="translate(69.000000, 32.000000)" stroke="#707D89" stroke-width="2">
                <path d="M8,0 L91.8,0 C96.2,0 99.8,3.6 99.8,8 L99.8,175.9 C99.8,180.3 96.2,183.9 91.8,183.9 L8,183.9 C3.6,183.9 0,180.3 0,175.9 L0,8 C0,3.6 3.6,0 8,0 Z" id="Shape" fill-opacity="0.6548" fill="#192C3A" fill-rule="nonzero"></path>
                <path d="M0.5,156 L99.3,156" id="Shape" stroke-linecap="square"></path>
                <path d="M44.1,170.3 L62.8,170.3" id="Shape" stroke-linecap="square"></path>
            </g>
            <g id="Group" transform="translate(102.000000, 66.000000)" fill-rule="nonzero" fill="#5BC2A7">
                <path d="M31.8,0 L0,0 L0,31.8 L31.8,31.8 L31.8,0 L31.8,0 Z M27.3,27.3 L4.6,27.3 L4.6,4.5 L27.3,4.5 L27.3,27.3 L27.3,27.3 Z" id="Shape"></path>
                <polygon id="Shape" points="65.9 90.9 61.4 90.9 61.4 100 100 100 100 95.5 65.9 95.5"></polygon>
                <rect id="Rectangle-path" x="9.1" y="9.1" width="13.6" height="13.6"></rect>
                <path d="M0,100 L31.8,100 L31.8,68.2 L0,68.2 L0,100 L0,100 Z M4.5,72.7 L27.2,72.7 L27.2,95.4 L4.5,95.4 L4.5,72.7 L4.5,72.7 Z" id="Shape"></path>
                <rect id="Rectangle-path" x="9.1" y="77.3" width="13.6" height="13.6"></rect>
                <path d="M68.2,0 L68.2,31.8 L100,31.8 L100,0 L68.2,0 L68.2,0 Z M95.5,27.3 L72.8,27.3 L72.8,4.5 L95.5,4.5 L95.5,27.3 L95.5,27.3 Z" id="Shape"></path>
                <rect id="Rectangle-path" x="77.3" y="9.1" width="13.6" height="13.6"></rect>
                <rect id="Rectangle-path" x="90.9" y="36.4" width="9.1" height="9.1"></rect>
                <rect id="Rectangle-path" x="0" y="54.5" width="9.1" height="9.1"></rect>
                <polygon id="Shape" points="47.7 36.4 29.5 36.4 29.5 40.9 52.3 40.9 52.3 31.8 52.3 27.3 56.8 27.3 56.8 18.2 52.3 18.2 47.7 18.2 43.2 18.2 43.2 9.1 47.7 9.1 47.7 13.6 63.6 13.6 63.6 0 59.1 0 59.1 9.1 52.3 9.1 52.3 0 50 0 40.9 0 38.6 0 38.6 22.7 47.7 22.7 47.7 27.3 38.6 27.3 38.6 31.8 47.7 31.8"></polygon>
                <polygon id="Shape" points="6.8 50 15.9 50 20.5 50 22.7 50 22.7 54.5 13.6 54.5 13.6 59.1 22.7 59.1 22.7 63.6 40.9 63.6 40.9 59.1 27.3 59.1 27.3 54.5 27.3 45.5 20.5 45.5 20.5 38.6 15.9 38.6 15.9 45.5 11.4 45.5 11.4 36.4 0 36.4 0 40.9 6.8 40.9"></polygon>
                <polygon id="Shape" points="50 90.9 50 79.5 40.9 79.5 40.9 70.5 36.4 70.5 36.4 84.1 45.5 84.1 45.5 90.9 36.4 90.9 36.4 95.5 45.5 95.5 45.5 100 56.8 100 56.8 95.5 50 95.5"></polygon>
                <polygon id="Shape" points="72.7 45.5 63.6 45.5 63.6 34.1 59.1 34.1 59.1 50 81.8 50 81.8 45.5 77.3 45.5 77.3 40.9 84.1 40.9 84.1 36.4 77.3 36.4 72.7 36.4 68.2 36.4 68.2 40.9 72.7 40.9"></polygon>
                <polygon id="Shape" points="68.2 86.4 75 86.4 75 90.9 84.1 90.9 84.1 86.4 84.1 81.8 84.1 75 75 75 75 81.8 68.2 81.8 68.2 75 63.6 75 63.6 81.8 59.1 81.8 59.1 63.6 54.5 63.6 54.5 59.1 50 59.1 50 45.5 34.1 45.5 34.1 54.5 38.6 54.5 38.6 50 45.5 50 45.5 59.1 45.5 68.2 54.5 68.2 54.5 81.8 54.5 86.4 59.1 86.4 63.6 86.4"></polygon>
                <polygon id="Shape" points="95.5 56.8 88.6 56.8 84.1 56.8 72.7 56.8 72.7 65.9 68.2 65.9 68.2 56.8 63.6 56.8 63.6 70.5 77.3 70.5 77.3 61.4 84.1 61.4 84.1 68.2 88.6 68.2 88.6 61.4 95.5 61.4 95.5 75 88.6 75 88.6 88.6 100 88.6 100 84.1 93.2 84.1 93.2 79.5 100 79.5 100 61.4 100 56.8 100 50 95.5 50"></polygon>
            </g>
        </g>
    </g>
</svg>
